docs/.gitbook/assets/icon-switch-16@light.svg

<svg width="32" height="32" viewBox="0 0 16 16" fill="none" xmlns="http://www.w3.org/2000/svg">
<rect x="0" y="0" width="16" height="16" fill="#fff"/>
<path fill-rule="evenodd" clip-rule="evenodd" d="M5.80747 1.24828C6.08457 1.55617 6.05961 2.03038 5.75172 2.30748L4.70447 3.25001H13.25C13.6642 3.25001 14 3.58579 14 4.00001C14 4.41422 13.6642 4.75001 13.25 4.75001H4.70447L5.75172 5.69254C6.05961 5.96963 6.08457 6.44385 5.80747 6.75173C5.53038 7.05961 5.05616 7.08457 4.74828 6.80748L2.24828 4.55748C2.09024 4.41525 2 4.21262 2 4.00001C2 3.78739 2.09024 3.58477 2.24828 3.44254L4.74828 1.19254C5.05616 0.915442 5.53038 0.9404 5.80747 1.24828ZM10.1925 9.24828C10.4696 8.9404 10.9438 8.91544 11.2517 9.19254L13.7517 11.4425C13.9098 11.5848 14 11.7874 14 12C14 12.2126 13.9098 12.4152 13.7517 12.5575L11.2517 14.8075C10.9438 15.0846 10.4696 15.0596 10.1925 14.7517C9.91544 14.4438 9.94039 13.9696 10.2483 13.6925L11.2955 12.75H2.75C2.33579 12.75 2 12.4142 2 12C2 11.5858 2.33579 11.25 2.75 11.25H11.2955L10.2483 10.3075C9.94039 10.0304 9.91544 9.55617 10.1925 9.24828Z" fill="#000"/>
</svg>

<svg xmlns="http://www.w3.org/2000/svg" width="32" height="32" fill="none" viewBox="0 0 16 16"><path fill="#fff" d="M0 0h16v16H0z"/><path fill="#000" fill-rule="evenodd" d="M5.807 1.248a.75.75 0 0 1-.055 1.06l-1.048.942h8.546a.75.75 0 0 1 0 1.5H4.704l1.048.943a.75.75 0 1 1-1.004 1.114l-2.5-2.25a.75.75 0 0 1 0-1.114l2.5-2.25a.75.75 0 0 1 1.06.055m4.386 8a.75.75 0 0 1 1.059-.055l2.5 2.25a.75.75 0 0 1 0 1.114l-2.5 2.25a.75.75 0 1 1-1.004-1.114l1.048-.943H2.75a.75.75 0 0 1 0-1.5h8.546l-1.048-.943a.75.75 0 0 1-.055-1.059" clip-rule="evenodd"/></svg>
